;START_OF_HEADER
;HEADER_VERSION:0.1
;FLAVOR:Griffin
;GENERATOR.NAME:Cura_SteamEngine
;GENERATOR.VERSION:4.13.1
;GENERATOR.BUILD_DATE:2022-01-28
;TARGET_MACHINE.NAME:Ultimaker S3
;EXTRUDER_TRAIN.0.INITIAL_TEMPERATURE:200
;EXTRUDER_TRAIN.0.MATERIAL.VOLUME_USED:4882
;EXTRUDER_TRAIN.0.MATERIAL.GUID:506c9f0d-e3aa-4bd4-b2d2-23e2425b1aa9
;EXTRUDER_TRAIN.0.NOZZLE.DIAMETER:0.4
;EXTRUDER_TRAIN.0.NOZZLE.NAME:AA 0.4
;BUILD_PLATE.TYPE:glass
;BUILD_PLATE.INITIAL_TEMPERATURE:60
;PRINT.TIME:5958
;PRINT.GROUPS:1
;PRINT.SIZE.MIN.X:91.722
;PRINT.SIZE.MIN.Y:71.494
;PRINT.SIZE.MIN.Z:0.2
;PRINT.SIZE.MAX.X:139.55
;PRINT.SIZE.MAX.Y:120.499
;PRINT.SIZE.MAX.Z:14.6
;END_OF_HEADER
;Generated with Cura_SteamEngine 4.13.1
T0
M82 ;absolute extrusion mode

G92 E0
M109 S200
G280 S1
G0 Z20.001
G1 F1500 E-6.5
;LAYER_COUNT:146
;LAYER:0
M107
M204 S625
M205 X50 Y50
G1 F600 Z2.2
G0 F1285.7 X127.934 Y101.137 Z2.2
M204 S500
M205 X20 Y20
;TYPE:SKIRT
G1 F600 Z0.2
G1 F1500 E0
G1 F600 X127.3 Y101.526 E0.00979
G1 X126.627 Y101.845 E0.0196
G1 X125.924 Y102.09 E0.0294
G1 X125.199 Y102.258 E0.0392
G1 X124 Y102.362 E0.05505
G1 X107.226 Y102.363 E0.27592
G1 X108.139 Y103.624 E0.29642
G1 X108.505 Y104.272 E0.30622
G1 X108.798 Y104.956 E0.31602
G1 X109.017 Y105.668 E0.32583
G1 X109.158 Y106.399 E0.33563
G1 X109.22 Y107.14 E0.34542
G1 X109.202 Y107.885 E0.35523
G1 X109.104 Y108.622 E0.36502
G1 X108.928 Y109.346 E0.37483
G1 X108.675 Y110.046 E0.38463
G1 X108.349 Y110.714 E0.39442
G1 X107.952 Y111.345 E0.40424
G1 X107.491 Y111.928 E0.41402
G1 X106.766 Y112.625 E0.42727
G1 X106.51 Y112.94 E0.43261
G1 X105.98 Y113.464 E0.44242
G1 X105.398 Y113.927 E0.45222
G1 X104.769 Y114.326 E0.46202
G1 X104.101 Y114.654 E0.47182
G1 X103.065 Y115.062 E0.48648
G1 X102.372 Y115.334 E0.49629
G1 X101.031 Y115.712 E0.51463
G1 X100.296 Y115.829 E0.52443
G1 X99.552 Y115.867 E0.53424
G1 X98.809 Y115.825 E0.54404
G1 X98.075 Y115.703 E0.55384
G1 X97.358 Y115.503 E0.56364
G1 X96.666 Y115.227 E0.57345
G1 X96.009 Y114.879 E0.58324
G1 X95.392 Y114.462 E0.59305
G1 X94.823 Y113.982 E0.60285
G1 X94.31 Y113.443 E0.61265
G1 X93.857 Y112.852 E0.62245
G1 X93.47 Y112.216 E0.63225
G1 X93.154 Y111.543 E0.64204
G1 X92.911 Y110.839 E0.65185
G1 X92.746 Y110.113 E0.66165
G1 X92.645 Y108.937 E0.67719
G1 X92.645 Y105.702 E0.71979
G1 X92.685 Y104.959 E0.72959
G1 X92.804 Y104.224 E0.73939
G1 X93.002 Y103.506 E0.7492
G1 X93.275 Y102.814 E0.759
G1 X93.621 Y102.155 E0.7688
G1 X94.036 Y101.537 E0.7786
G1 X94.515 Y100.967 E0.7884
G1 X95.052 Y100.452 E0.7982
G1 X95.641 Y99.997 E0.808
G1 X96.275 Y99.608 E0.81779
G1 X96.948 Y99.289 E0.8276
G1 X97.651 Y99.044 E0.8374
G1 X98.376 Y98.876 E0.8472
G1 X99.115 Y98.787 E0.857
G1 X99.938 Y98.785 E0.86784
G1 X99.587 Y98.06 E0.87845
G1 X99.343 Y97.357 E0.88824
G1 X99.175 Y96.632 E0.89804
G1 X99.085 Y95.893 E0.90785
G1 X99.07 Y95.433 E0.91391
G1 X99.07 Y94.568 E0.9253
G1 X99.11 Y93.825 E0.93509
G1 X99.229 Y93.09 E0.9449
G1 X99.427 Y92.372 E0.9547
G1 X99.7 Y91.68 E0.9645
G1 X100.046 Y91.021 E0.9743
G1 X100.461 Y90.403 E0.9841
G1 X100.94 Y89.833 E0.99391
G1 X101.477 Y89.318 E1.0037
G1 X102.066 Y88.863 E1.0135
G1 X102.7 Y88.474 E1.0233
G1 X103.373 Y88.155 E1.0331
G1 X104.076 Y87.91 E1.04291
G1 X104.801 Y87.742 E1.05271
G1 X106 Y87.638 E1.06855
G1 X124 Y87.637 E1.30557
G1 X124.373 Y87.657 E1.31049
G1 X123.974 Y87.056 E1.31998
G1 X123.63 Y86.396 E1.32978
G1 X123.36 Y85.702 E1.33959
G1 X123.165 Y84.984 E1.34939
G1 X123.048 Y84.249 E1.35919
G1 X123.011 Y83.506 E1.36898
G1 X123.054 Y82.762 E1.37879
G1 X123.176 Y82.028 E1.38859
G1 X123.376 Y81.311 E1.39839
G1 X123.652 Y80.62 E1.40819
G1 X124.001 Y79.963 E1.41799
G1 X124.418 Y79.346 E1.42779
G1 X124.899 Y78.778 E1.43759
G1 X125.438 Y78.265 E1.44739
G1 X126.435 Y77.433 E1.46449
G1 X127.048 Y77.01 E1.4743
G1 X127.702 Y76.656 E1.48409
G1 X128.93 Y76.125 E1.5017
G1 X129.631 Y75.876 E1.5115
G1 X130.441 Y75.64 E1.52261
G1 X131.159 Y75.445 E1.53241
G1 X131.894 Y75.327 E1.54221
G1 X132.638 Y75.289 E1.55202
G1 X133.381 Y75.331 E1.56182
G1 X134.115 Y75.452 E1.57161
G1 X134.832 Y75.652 E1.58141
G1 X135.524 Y75.927 E1.59122
G1 X136.182 Y76.274 E1.60101
G1 X136.799 Y76.691 E1.61082
G1 X137.368 Y77.171 E1.62062
G1 X137.882 Y77.709 E1.63042
G1 X138.335 Y78.299 E1.64021
G1 X138.722 Y78.935 E1.65002
G1 X139.039 Y79.608 E1.65981
G1 X139.282 Y80.312 E1.66962
G1 X139.449 Y81.037 E1.67941
G1 X139.55 Y82.219 E1.69503
G1 X139.55 Y85.31 E1.73573
G1 X139.51 Y86.053 E1.74553
G1 X139.391 Y86.788 E1.75534
G1 X139.193 Y87.506 E1.76514
G1 X138.92 Y88.198 E1.77494
G1 X138.574 Y88.857 E1.78474
G1 X138.159 Y89.475 E1.79454
G1 X137.68 Y90.045 E1.80435
G1 X137.143 Y90.56 E1.81414
G1 X136.554 Y91.015 E1.82394
G1 X135.92 Y91.404 E1.83374
G1 X135.247 Y91.723 E1.84354
G1 X134.544 Y91.968 E1.85335
G1 X133.819 Y92.136 E1.86315
G1 X133.08 Y92.225 E1.87295
G1 X132.336 Y92.234 E1.88274
G1 X131.595 Y92.164 E1.89254
G1 X130.575 Y91.937 E1.9063
G1 X130.382 Y91.874 E1.90898
G1 X130.657 Y92.643 E1.91973
G1 X130.825 Y93.368 E1.92953
G1 X130.915 Y94.107 E1.93933
G1 X130.93 Y94.567 E1.94539
G1 X130.93 Y95.432 E1.95678
G1 X130.89 Y96.175 E1.96658
G1 X130.771 Y96.91 E1.97638
G1 X130.573 Y97.628 E1.98619
G1 X130.3 Y98.32 E1.99599
G1 X129.954 Y98.979 E2.00579
G1 X129.539 Y99.597 E2.01559
G1 X129.06 Y100.167 E2.02539
G1 X128.523 Y100.682 E2.03519
G1 X127.934 Y101.137 E2.04499
M204 S625
M205 X50 Y50
G0 F1285.7 X127.529 Y100.902
M204 S500
M205 X20 Y20
G1 F600 X126.902 Y101.259 E2.05449
G1 X126.24 Y101.545 E2.06399
G1 X125.55 Y101.755 E2.07348
G1 X124.841 Y101.887 E2.08298
G1 X124 Y101.942 E2.09408
G1 X106.308 Y101.943 E2.32703
G1 X106.752 Y102.426 E2.33567
G1 X107.264 Y103.154 E2.34739
G1 X107.809 Y103.887 E2.35942
G1 X108.157 Y104.519 E2.36892
G1 X108.434 Y105.185 E2.37842
G1 X108.635 Y105.878 E2.38792
G1 X108.759 Y106.588 E2.39741
G1 X108.803 Y107.308 E2.40691
G1 X108.767 Y108.029 E2.41641
G1 X108.652 Y108.741 E2.42591
G1 X108.458 Y109.436 E2.43541
G1 X108.189 Y110.105 E2.4449
G1 X107.847 Y110.741 E2.45441
G1 X107.438 Y111.334 E2.4639
G1 X106.965 Y111.879 E2.4734
G1 X106.436 Y112.366 E2.48287
G1 X106.184 Y112.675 E2.48812
G1 X105.668 Y113.179 E2.49762
G1 X105.1 Y113.623 E2.50711
G1 X104.486 Y114.002 E2.51661
G1 X103.834 Y114.311 E2.52611
G1 X102.89 Y114.68 E2.53946
G1 X102.218 Y114.943 E2.54896
G1 X100.921 Y115.306 E2.56669
G1 X100.208 Y115.416 E2.57619
G1 X99.487 Y115.446 E2.58569
G1 X98.767 Y115.397 E2.5952
G1 X98.057 Y115.268 E2.6047
G1 X97.366 Y115.061 E2.6142
G1 X96.702 Y114.779 E2.62369
G1 X96.074 Y114.425 E2.63319
G1 X95.488 Y114.004 E2.64269
G1 X94.952 Y113.521 E2.65219
G1 X94.474 Y112.981 E2.66168
G1 X94.057 Y112.392 E2.67119
G1 X93.709 Y111.76 E2.68069
G1 X93.433 Y111.094 E2.69018
G1 X93.232 Y110.401 E2.69968
G1 X93.109 Y109.69 E2.70918
G1 X93.065 Y108.937 E2.71911
G1 X93.065 Y105.702 E2.76171
G1 X93.105 Y104.982 E2.77121
G1 X93.224 Y104.27 E2.78071
G1 X93.422 Y103.576 E2.79021
G1 X93.695 Y102.909 E2.7997
G1 X94.04 Y102.275 E2.80921
G1 X94.453 Y101.684 E2.8187
G1 X94.929 Y101.142 E2.8282
G1 X95.462 Y100.656 E2.8377
G1 X96.046 Y100.232 E2.8472
G1 X96.673 Y99.875 E2.8567
G1 X97.335 Y99.589 E2.8662
G1 X98.025 Y99.379 E2.87569
G1 X98.734 Y99.247 E2.88519
G1 X99.454 Y99.193 E2.8947
G1 X100.175 Y99.22 E2.9042
G1 X100.783 Y99.31 E2.91229
G1 X100.53 Y98.963 E2.91794
G1 X100.173 Y98.336 E2.92744
G1 X99.888 Y97.673 E2.93695
G1 X99.677 Y96.983 E2.94645
G1 X99.545 Y96.274 E2.95594
G1 X99.49 Y95.433 E2.96704
G1 X99.49 Y94.568 E2.97843
G1 X99.53 Y93.848 E2.98793
G1 X99.649 Y93.136 E2.99743
G1 X99.847 Y92.442 E3.00693
G1 X100.12 Y91.775 E3.01642
G1 X100.465 Y91.141 E3.02593
G1 X100.878 Y90.55 E3.03542
G1 X101.354 Y90.008 E3.04492
G1 X101.887 Y89.522 E3.05442
G1 X102.471 Y89.098 E3.06392
G1 X103.098 Y88.741 E3.07342
G1 X103.76 Y88.455 E3.08292
G1 X104.45 Y88.245 E3.09241
G1 X105.159 Y88.113 E3.10191
G1 X106 Y88.058 E3.11301
G1 X124 Y88.057 E3.35002
G1 X124.72 Y88.097 E3.35951
G1 X125.307 Y88.195 E3.36735
G1 X125.101 Y87.878 E3.37233
G1 X124.71 Y87.407 E3.38039
G1 X124.313 Y86.804 E3.3899
G1 X123.986 Y86.161 E3.39939
G1 X123.731 Y85.486 E3.4089
G1 X123.553 Y84.787 E3.41839
G1 X123.453 Y84.073 E3.42789
G1 X123.433 Y83.352 E3.43738
G1 X123.493 Y82.633 E3.44688
G1 X123.632 Y81.925 E3.45638
G1 X123.849 Y81.237 E3.46588
G1 X124.14 Y80.577 E3.47538
G1 X124.503 Y79.953 E3.48489
G1 X124.932 Y79.374 E3.49438
G1 X125.423 Y78.845 E3.50388
G1 X126.112 Y78.276 E3.51565
G1 X126.727 Y77.738 E3.5264
G1 X127.324 Y77.333 E3.5359
G1 X127.963 Y76.998 E3.5454
G1 X129.112 Y76.504 E3.56187
G1 X130.11 Y76.192 E3.57564
G1 X131.269 Y75.851 E3.59155
G1 X131.982 Y75.74 E3.60105
G1 X132.703 Y75.71 E3.61055
G1 X133.423 Y75.759 E3.62005
G1 X134.133 Y75.887 E3.62955
G1 X134.824 Y76.093 E3.63905
G1 X135.488 Y76.375 E3.64855
G1 X136.117 Y76.728 E3.65804
G1 X136.703 Y77.149 E3.66755
G1 X137.239 Y77.632 E3.67705
G1 X137.718 Y78.171 E3.68654
G1 X138.135 Y78.76 E3.69604
G1 X138.484 Y79.391 E3.70554
G1 X138.761 Y80.057 E3.71504
G1 X138.962 Y80.75 E3.72454
G1 X139.086 Y81.461 E3.73404
G1 X139.13 Y82.219 E3.74404
G1 X139.13 Y85.31 E3.78474
G1 X139.09 Y86.03 E3.79423
G1 X138.971 Y86.742 E3.80374
G1 X138.773 Y87.436 E3.81324
G1 X138.5 Y88.103 E3.82273
G1 X138.155 Y88.737 E3.83224
G1 X137.742 Y89.328 E3.84173
G1 X137.266 Y89.87 E3.85123
G1 X136.733 Y90.356 E3.86072
G1 X136.149 Y90.78 E3.87023
G1 X135.522 Y91.137 E3.87973
G1 X134.86 Y91.423 E3.88922
G1 X134.17 Y91.633 E3.89872
G1 X133.461 Y91.765 E3.90822
G1 X132.741 Y91.819 E3.91772
G1 X132.02 Y91.792 E3.92722
G1 X130.946 Y91.601 E3.94159
G1 X129.997 Y91.307 E3.95467
G1 X129.503 Y91.095 E3.96175
G1 X129.827 Y91.664 E3.97037
G1 X130.112 Y92.327 E3.97987
G1 X130.323 Y93.017 E3.98937
G1 X130.455 Y93.726 E3.99887
G1 X130.51 Y94.567 E4.00997
G1 X130.51 Y95.432 E4.02136
G1 X130.47 Y96.152 E4.03085
G1 X130.351 Y96.864 E4.04036
G1 X130.153 Y97.558 E4.04986
G1 X129.88 Y98.225 E4.05935
G1 X129.535 Y98.859 E4.06885
G1 X129.122 Y99.45 E4.07835
G1 X128.646 Y99.992 E4.08785
G1 X128.113 Y100.478 E4.09734
G1 X127.529 Y100.902 E4.10685
M204 S625
M205 X50 Y50
G0 F1285.7 X127.704 Y100.266
M204 S500
M205 X20 Y20
G1 F600 X127.127 Y100.658 E4.11603
G1 X126.508 Y100.981 E4.12522
G1 X125.857 Y101.232 E4.13441
G1 X125.181 Y101.406 E4.1436
G1 X124.49 Y101.502 E4.15279
G1 X124 Y101.522 E4.15925
G1 X106 Y101.523 E4.39626
G1 X104.994 Y101.429 E4.40956
G1 X105.498 Y101.782 E4.41767
G1 X106.02 Y102.245 E4.42685
G1 X106.486 Y102.764 E4.43604
G1 X107.077 Y103.577 E4.44927
G1 X107.477 Y104.149 E4.45846
G1 X107.809 Y104.763 E4.46765
G1 X108.068 Y105.411 E4.47684
G1 X108.251 Y106.084 E4.48603
G1 X108.356 Y106.774 E4.49522
G1 X108.382 Y107.471 E4.5044
G1 X108.327 Y108.167 E4.51359
G1 X108.194 Y108.851 E4.52277
G1 X107.983 Y109.516 E4.53195
G1 X107.697 Y110.153 E4.54115
G1 X107.34 Y110.753 E4.55034
G1 X106.918 Y111.308 E4.55952
G1 X106.434 Y111.811 E4.56871
G1 X106.169 Y112.03 E4.57324
G1 X105.858 Y112.408 E4.57969
G1 X105.357 Y112.893 E4.58887
G1 X104.803 Y113.318 E4.59806
G1 X104.205 Y113.676 E4.60724
G1 X103.569 Y113.964 E4.61643
G1 X102.716 Y114.298 E4.62849
G1 X102.065 Y114.551 E4.63769
G1 X100.811 Y114.9 E4.65483
G1 X100.121 Y115.002 E4.66401
G1 X99.424 Y115.025 E4.6732
G1 X98.729 Y114.968 E4.68238
G1 X98.044 Y114.831 E4.69158
G1 X97.38 Y114.618 E4.70076
G1 X96.745 Y114.329 E4.70995
G1 X96.147 Y113.97 E4.71913
G1 X95.593 Y113.545 E4.72832
G1 X95.092 Y113.059 E4.73751
G1 X94.65 Y112.52 E4.74669
G1 X94.273 Y111.933 E4.75588
G1 X93.965 Y111.307 E4.76507
G1 X93.731 Y110.65 E4.77425
G1 X93.573 Y109.97 E4.78344
G1 X93.485 Y108.937 E4.79709
G1 X93.485 Y105.702 E4.83969
G1 X93.525 Y105.005 E4.84888
G1 X93.644 Y104.318 E4.85806
G1 X93.842 Y103.649 E4.86725
G1 X94.114 Y103.006 E4.87644
G1 X94.458 Y102.4 E4.88562
G1 X94.87 Y101.836 E4.89481
G1 X95.343 Y101.323 E4.904
G1 X95.871 Y100.868 E4.91318
G1 X96.448 Y100.476 E4.92237
G1 X97.067 Y100.153 E4.93156
G1 X97.718 Y99.902 E4.94075
G1 X98.394 Y99.728 E4.94994
G1 X99.085 Y99.632 E4.95912
G1 X99.782 Y99.616 E4.9683
G1 X100.477 Y99.679 E4.97749
G1 X101.421 Y99.899 E4.99026
G1 X102.112 Y100.119 E4.9998
G1 X101.621 Y99.666 E5.0086
G1 X101.166 Y99.137 E5.01779
G1 X100.774 Y98.56 E5.02697
G1 X100.451 Y97.942 E5.03615
G1 X100.2 Y97.29 E5.04535
G1 X100.026 Y96.615 E5.05453
G1 X99.93 Y95.924 E5.06372
G1 X99.91 Y95.433 E5.07019
G1 X99.91 Y94.568 E5.08158
G1 X99.95 Y93.871 E5.09077
G1 X100.069 Y93.184 E5.09995
G1 X100.267 Y92.515 E5.10914
G1 X100.539 Y91.872 E5.11833
G1 X100.883 Y91.266 E5.12751
G1 X101.295 Y90.702 E5.1367
G1 X101.768 Y90.189 E5.14589
G1 X102.296 Y89.734 E5.15507
G1 X102.873 Y89.342 E5.16426
G1 X103.492 Y89.019 E5.17345
G1 X104.143 Y88.768 E5.18264
G1 X104.819 Y88.594 E5.19183
G1 X105.51 Y88.498 E5.20101
G1 X106 Y88.478 E5.20747
G1 X124 Y88.477 E5.44448
G1 X124.696 Y88.517 E5.45366
G1 X125.384 Y88.636 E5.46286
G1 X126.053 Y88.833 E5.47204
G1 X126.61 Y89.07 E5.48001
G1 X126.134 Y88.591 E5.4889
G1 X125.702 Y88.044 E5.49808
G1 X125.465 Y87.66 E5.50402
G1 X125.034 Y87.138 E5.51294
G1 X124.653 Y86.553 E5.52213
G1 X124.342 Y85.929 E5.53131
G1 X124.105 Y85.273 E5.54049
G1 X123.944 Y84.594 E5.54968
G1 X123.862 Y83.901 E5.55887
G1 X123.86 Y83.203 E5.56806
G1 X123.937 Y82.51 E5.57724
G1 X124.094 Y81.83 E5.58643
G1 X124.327 Y81.172 E5.59562
G1 X124.634 Y80.545 E5.60481
G1 X125.01 Y79.958 E5.61399
G1 X125.451 Y79.417 E5.62318
G1 X125.951 Y78.931 E5.63237
G1 X127.018 Y78.045 E5.65063
G1 X127.599 Y77.659 E5.65981
G1 X128.221 Y77.342 E5.669
G1 X128.663 Y77.184 E5.67519
G1 X129.293 Y76.884 E5.68437
G1 X130.242 Y76.591 E5.69745
G1 X131.379 Y76.257 E5.71306
G1 X132.069 Y76.154 E5.72224
G1 X132.766 Y76.131 E5.73142
G1 X133.462 Y76.187 E5.74062
G1 X134.146 Y76.323 E5.7498
G1 X134.811 Y76.537 E5.759
G1 X135.446 Y76.824 E5.76817
G1 X136.045 Y77.183 E5.77737
G1 X136.598 Y77.608 E5.78655
G1 X137.099 Y78.093 E5.79574
G1 X137.542 Y78.633 E5.80493
G1 X137.92 Y79.219 E5.81411
G1 X138.228 Y79.845 E5.8233
G1 X138.463 Y80.502 E5.83249
G1 X138.621 Y81.182 E5.84168
G1 X138.71 Y82.219 E5.85539
G1 X138.71 Y85.31 E5.89609
G1 X138.67 Y86.007 E5.90528
G1 X138.551 Y86.694 E5.91446
G1 X138.353 Y87.363 E5.92365
G1 X138.081 Y88.006 E5.93284
G1 X137.737 Y88.612 E5.94201
G1 X137.325 Y89.176 E5.95121
G1 X136.852 Y89.689 E5.9604
G1 X136.324 Y90.144 E5.96958
G1 X135.747 Y90.536 E5.97876
G1 X135.128 Y90.859 E5.98796
G1 X134.477 Y91.11 E5.99714
G1 X133.801 Y91.284 E6.00633
G1 X133.11 Y91.38 E6.01552
G1 X132.413 Y91.396 E6.0247
G1 X131.718 Y91.333 E6.03389
G1 X130.791 Y91.125 E6.0464
G1 X129.972 Y90.832 E6.05785
G1 X128.394 Y90.19 E6.08028
G1 X128.04 Y90.021 E6.08545
G1 X128.379 Y90.334 E6.09152
G1 X128.834 Y90.863 E6.10071
G1 X129.226 Y91.44 E6.1099
G1 X129.549 Y92.058 E6.11908
G1 X129.8 Y92.71 E6.12828
G1 X129.974 Y93.385 E6.13746
G1 X130.07 Y94.076 E6.14664
G1 X130.09 Y94.567 E6.15311
G1 X130.09 Y95.432 E6.1645
G1 X130.05 Y96.129 E6.1737
G1 X129.931 Y96.816 E6.18288
G1 X129.733 Y97.485 E6.19206
G1 X129.461 Y98.128 E6.20126
G1 X129.117 Y98.734 E6.21043
G1 X128.705 Y99.298 E6.21963
G1 X128.232 Y99.811 E6.22882
G1 X127.704 Y100.266 E6.23799
M204 S625
M205 X50 Y50
G0 F1285.7 X127.296 Y100.045
M204 S500
M205 X20 Y20
G1 F600 X126.726 Y100.404 E6.24686
G1 X126.118 Y100.692 E6.25572
G1 X125.48 Y100.906 E6.26458
G1 X124.82 Y101.042 E6.27346
G1 X124 Y101.102 E6.28428
G1 X106 Y101.103 E6.5213
G1 X105.328 Y101.063 E6.53016
G1 X104.666 Y100.944 E6.53902
G1 X104.022 Y100.747 E6.54788
G1 X103.406 Y100.475 E6.55675
G1 X102.827 Y100.132 E6.56561
G1 X102.292 Y99.723 E6.57448
G1 X101.81 Y99.253 E6.58334
G1 X101.387 Y98.73 E6.5922
G1 X101.029 Y98.16 E6.60106
G1 X100.74 Y97.551 E6.60994
G1 X100.527 Y96.913 E6.6188
G1 X100.39 Y96.254 E6.62766
G1 X100.33 Y95.433 E6.6385
G1 X100.33 Y94.568 E6.64989
G1 X100.37 Y93.896 E6.65875
G1 X100.489 Y93.233 E6.66762
G1 X100.686 Y92.59 E6.67648
G1 X100.958 Y91.974 E6.68534
G1 X101.301 Y91.395 E6.69421
G1 X101.71 Y90.86 E6.70307
G1 X102.18 Y90.378 E6.71194
G1 X102.704 Y89.955 E6.7208
G1 X103.274 Y89.596 E6.72967
G1 X103.882 Y89.308 E6.73853
G1 X104.52 Y89.094 E6.74739
G1 X105.18 Y88.958 E6.75627
G1 X106 Y88.898 E6.76709
G1 X124 Y88.897 E7.00411
G1 X124.672 Y88.937 E7.01297
